X:1
T:Title
%%score { 1 | 2 }
L:1/8
M:4/4
K:Eb
V:1 treble nm="Grand Piano"
V:2 bass 
V:1
 z4 z2[Q:1/4=100] B2 | B3 B cBGB | c4 z2 c2 | B2 G2 G2 E2 | [DF]4 z2 B2 | B3 B cBGB | c4 z2 c2 | %7
 B2 G2 [B,EG]3 [A,DF] |[M:3/4] [G,E]6 |[M:1/4] [B,EG]2 |[M:4/4] [B,DF]3 [B,DF] [B,EG]2 [B,FA]2 | %11
 [EGB]2 [B,EG]2 [EGB]2 [EGB]2 | [EAc]2 [CAc]2 [=Af]2 [Ae]2 | [Bd]4 [Ac]4 | %14
 [GB]3 [GB] [Ac][GB][B,EG][EGB] | [EAc]4 z2 [EAc]2 | [EGB]2 [G,E]2 [B,EG]3 [A,DF] | %17
[M:3/4] [G,E]6 |] %18
V:2
 z4 z2 [E,G,E]2 | [E,G,E]3 [E,G,E] [E,A,E][E,G,E][E,B,E][E,G,E] | [A,E]4 z2 [A,E]2 | %3
 [E,G,E]2 [E,B,E]2 [E,B,E]2 [E,G,]2 | [B,,B,]4 z2 [E,G,E]2 | %5
 [E,G,E]3 [E,G,E] [E,A,E][E,G,E][E,B,E][E,G,E] | [A,E]4 z2 [A,E]2 | [E,G,E]2 [E,B,E]2 B,,3 B,, | %8
[M:3/4] E,6 |[M:1/4] E,2 |[M:4/4] B,,3 B,, E,2 E,2 | E,2 E,2 E,2 E,2 | A,2 A,2 [F,C]2 [F,C]2 | %13
 [B,D]4 [B,D]4 | [E,E]3 [E,E] [E,E][E,E]E,E, | A,4 z2 A,2 | E,2 E,2 B,,3 B,, |[M:3/4] E,6 |] %18

